packages/foundations/assets/icons/functional/images/editing/plus_32.svg

<svg xmlns="http://www.w3.org/2000/svg" width="32" height="32" fill="none"><g clip-path="url(#a)"><path fill="#1A1C1F" fill-rule="evenodd" d="M16 6c.563 0 1 .438 1 1v8h8c.563 0 1 .438 1 1s-.438 1-1 1h-8v8c0 .563-.438 1-1 1s-1-.438-1-1v-8H7c-.563 0-1-.438-1-1s.438-1 1-1h8V7c0-.563.438-1 1-1" clip-rule="evenodd"/></g><defs><clipPath id="a"><path fill="#fff" d="M0 0h32v32H0z"/></clipPath></defs></svg>

<svg width="32" height="32" viewBox="0 0 32 32" fill="none" xmlns="http://www.w3.org/2000/svg">
<g clip-path="url(#clip0_83_269)">
<path fill-rule="evenodd" clip-rule="evenodd" d="M16 6C16.563 6 17 6.438 17 7V15H25C25.563 15 26 15.438 26 16C26 16.563 25.562 17 25 17H17V25C17 25.563 16.562 26 16 26C15.437 26 15 25.562 15 25V17H7C6.437 17 6 16.562 6 16C6 15.437 6.438 15 7 15H15V7C15 6.437 15.438 6 16 6Z" fill="#1A1C1F"/>
</g>
<defs>
<clipPath id="clip0_83_269">
<rect width="32" height="32" fill="white"/>
</clipPath>
</defs>
</svg>
